X:1
T:Prelude in C-Major
T:Prelude in C-Major
T:Johann Sebastian Bach
T:Arr. for piano by Ferruccio Busoni
T:From Toccata, Adagio and Fugue in C Major for Organ BWV 564
C:Johann Sebastian Bach
Z:Arr. for piano by Ferruccio Busoni
%%score { ( 1 4 5 6 ) | ( 2 3 7 8 ) }
L:1/8
M:4/4
K:C
V:1 treble nm="Piano" snm="Pno."
V:4 treble 
V:5 treble 
V:6 treble 
V:2 treble 
V:3 treble 
V:7 treble 
V:8 treble 
V:1
 z/[Q:1/4=68]"^Tempo moderato"!f! .c'/.[ee']/[gg']/4b/4 !tenuto![ff']/ z/ !breath!z z/ .a/.[Bb]/[dd']/4g/4 !tenuto![ee']/ z/ z | %1
 c'/4b/4a/4g/4f/4e/4d/4c/4 B/4d/4f/4B/4 .c/.C/ z2 z/4[Q:1/4=72] C/4D/4E/4F/4E/4D/4C/4 | %2
 x2[I:staff +1] C/4[I:staff -1]D/4E/4F/4G/4F/4E/4D/4 E/4[I:staff +1]C/4D/4E/4F/4[I:staff -1]G/4A/4B/4 c/4B/4A/4G/4A/4G/4[I:staff +1]F/4E/4 | %3
[I:staff -1] f/4e/4d/4c/4d/4c/4B/4A/4 B/4G/4A/4B/4c/4d/4e/4f/4 g/4f/4e/4d/4e/4d/4c/4B/4 a/4g/4f/4e/4f/4e/4d/4c/4 | %4
[Q:1/4=60] !>!_b/4a/4g/4f/4g/4f/4e/4[Q:1/4=30]d/4[Q:1/4=72] !>!_b'/4"^simile"a'/4g'/4f'/4g'/4f'/4e'/4d'/4 !>!f'/4e'/4d'/4c'/4d'/4c'/4=b/4a/4 !>!f'/4e'/4d'/4c'/4d'/4c'/4b/4a/4 | %5
 !>!g'/4f'/4e'/4d'/4e'/4d'/4c'/4b/4 !>!c'/4b/4a/4g/4a/4g/4f/4e/4 !>!f/4e/4d/4c/4B/4c/4d/4e/4 !>!f/4e/4d/4c/4B/4c/4d/4e/4 | %6
 !>!E/4c/4B/4A/4G/4F/4E/4D/4 !>!E/4F/4G/4F/4E/4D/4C/4B,/4 !>!C/4G,/4A,/4B,/4C/4D/4E/4F/4 !>!G/4F/4E/4D/4E/4F/4G/4A/4 | %7
 !>!_B/4G/4A/4B/4c/4d/4e/4f/4[Q:1/4=66] !>!g/4f/4e/4d/4e/4f/4g/4a/4[Q:1/4=62] !>![_B_b]/!p! !tenuto![Bgb]/!<(! !tenuto![Begb]/ !tenuto![Begb]/ !tenuto![Begb]/ !tenuto![Gegb]/!<)!!f! !tenuto!!fermata![Gegb] | %8
[K:bass][Q:1/4=72]!p![I:staff +1] C,/4[I:staff -1][D,D]/4[I:staff +1]E,/4[I:staff -1][F,F]/4[I:staff +1]E,/4[I:staff -1][D,D]/4[I:staff +1]C,/4[I:staff -1][D,D]/4[I:staff +1] E,/4[I:staff -1][F,F]/4[I:staff +1]E,/4[I:staff -1][D,D]/4[I:staff +1]C,/4[I:staff -1][D,D]/4[I:staff +1]E,/4[I:staff -1][F,F]/4[I:staff +1] G,/4[I:staff -1][F,F]/4[I:staff +1]E,/4[I:staff -1][F,F]/4[I:staff +1]G,/4[I:staff -1][A,A]/4[I:staff +1]G,/4[I:staff -1][F,F]/4[I:staff +1] E,/4[I:staff -1][F,F]/4[I:staff +1]G,/4[I:staff -1][A,A]/4[I:staff +1]G,/4[I:staff -1][F,F]/4[I:staff +1]E,/4[I:staff -1][F,F]/4 | %9
[K:treble][I:staff +1] G,/4[I:staff -1][A,A]/4[I:staff +1]_B,/4"^cresc."[I:staff -1][A,A]/4[I:staff +1]G,/4[I:staff -1][A,A]/4[I:staff +1]B,/4[I:staff -1][Cc]/4[I:staff +1] B,/4[I:staff -1][A,A]/4[I:staff +1]G,/4[I:staff -1][A,A]/4[I:staff +1]B,/4C/4[I:staff -1][Dd]/4[Ee]/4[Q:1/4=62] (3[Ff]/[Gg]/[Aa]/!p!!<(! [Afa]/ [Afa]/ [Acfa]/ [Acfa]/!<)!!f! !fermata![FAcfa] | %10
!f![Q:1/4=76] f/4e/4d/4c/4=B/4A/4G/4F/4 z g/4f/4e/4d/4 f'/4e'/4d'/4c'/4b/4a/4g/4f/4 e/4d/4c/4B/4d/4A/4G/4F/4 | %11
 E/4G/4c/4G/4E/4G/4E/4B,/4[Q:1/4=66] x2[K:bass][Q:1/4=60]!<(! E,/4G,/4C/4G,/4E,/4[I:staff +1]C,/4G,,/4C,/4!<)![Q:1/4=40][I:staff -1] C,, z | %12
[Q:1/4=68] z/!mf! C,/G,/G,,/ !tenuto!C, z!f! C,/E,/D,/F,/ E,/G,/^F,/A,/ | %13
[Q:1/4=66] G,/B,/A,/C/[Q:1/4=60] B,/D/!breath!G, z z/"^legato"!p![Q:1/4=68] C/ B,/D/A,/C/ | %14
[Q:1/4=60] B,/D/!breath!G, z z/!mf![Q:1/4=68] C/ B,/D/G,/B,/ A,/C/^F,/A,/ | %15
[Q:1/4=60] G,/A,/!breath!B,, z z/"^legato"!p![Q:1/4=68] A,/ G,/B,/^F,/A,/[Q:1/4=60] G,/A,/!breath!B,, | %16
 z z/!mf![Q:1/4=68] G,/ =F,/G,/E,/G,/ F,/G,/B,,/G,/ F,/G,/E,/G,/ | %17
 F,/G,/B,,/F,/ E,/F,/D,/F,/[Q:1/4=60] E,/G,/!breath!C, z z/!p![Q:1/4=68] F,/ | %18
 E,/G,/D,/F,/[Q:1/4=60] E,/G,/!breath!C, z z/!mf![Q:1/4=68] _B,/ A,/B,/G,/B,/ | %19
 A,/C/F,/A,/ G,/A,/E,/G,/ F,/A,/D,/F,/ E,/G,/C,/E,/ | %20
 D,/F,/=B,,/G,/ F,/G,/D,/F,/ E,/G,/C,/C/ ^F,/A,/D,/C/ | %21
 ^F,/A,/D,/C/ A,/C/F,/A,/ G,/B,/D,/D/ G,/B,/D,/D/ | %22
 B,/D/G,/B,/ D,/G,/ z/ D/ B,/D/G,/B,/ D,/G,/ z/ G,/ | %23
 (3x/ G,/F,/ (3x/ F,/E,/ z/ F,/E,/F,/ (3x/ E,/D,/ (3x/ D,/C,/ B,,/4C,/4B,,/4C,/4B,,/.D,/ | %24
 C,/E,/D,/F,/ .E,/.G,/!pp!"^legato" B,,/D,/ C,/D,/4E,/4D,/E,/4F,/4E,/G,/ .C,/.E,/ | %25
 D,/F,/E,/G,/ .F,/.A,/!p!"^legato" ^C,/E,/D,/E,/4F,/4E,/F,/4G,/4F,/A,/ D,/F,/ | %26
 E,/F,/4G,/4F,/G,/4A,/4 B,,/G,/C,/D,/ G,,/E,/ (6:4:6E,/4D,/4E,/4D,/4C,/4D,/4[Q:1/4=40]"^ten." C,3/2[Q:1/4=68]!p! [_B,,_B,]/ | %27
 E,/[G,,G,]/C,/[_B,,_B,]/ E,/[G,,G,]/C,/[B,,B,]/ A,/[C,C]/F,/[G,,G,]/ E,/[G,,G,]/C,/ C/ | %28
 (3_B,/C/B,/(3A,/B,/A,/ (3G,/A,/G,/(3F,/G,/F,/ (3E,/F,/E,/(3D,/E,/D,/ (3C,/D,/C,/(3_B,,/C,/B,,/ | %29
"_cresc." (3A,,/_B,,/A,,/(3G,,/A,,/G,,/ F,,/G,,/4F,,/4E,,/F,,/[Q:1/4=80]"^ten." G,,3/2[Q:1/4=72]!f! ^F,/ G,/>F,/G,/>F,/ | %30
 G,/>^F,/G,/>F,/[Q:1/4=68]!<(! G,/4=F,/4E,/4F,/4G,/4F,/4E,/4F,/4!<)!!ff![Q:1/4=60] G,/>B,,/C,/>F,,/[Q:1/4=40]"^ten." !fermata!G,,3/2[K:treble][Q:1/4=60]!ff! [fgbf']/ | %31
[Q:1/4=40] [egc'e'] z/[Q:1/4=64]!mp! [EG]/ A/B/4c/4B/c/4d/4 c/d/4e/4d/e/4f/4 e/f/4g/4f/g/4a/4 | %32
 [Eg]3/2 x/ z [Ff]- [Ff][Ee] [Dd]2 | [Gc] z/ [EBe]/ [Fcf][Gd] [Ge][FB][Gc][Bd] | %34
 [ce]/g/[cc'] z/ a/d'/a/ [gb][gc'] z/ [ca]/[Bb] | %35
 [cegc'] z/ f/ e/g/c/e/ B/d/.G/ F/[Q:1/4=58]"^ten." [Gc]>[Q:1/4=64][Gc] | %36
 !breath!!tenuto![DGd] z [EGce]>[DGBd] cB [A,A]2 | %37
 [G,B,G]3/2 D/ E/^F/4G/4F/G/4A/4 G/A/4B/4A/B/4d/4 B/c/4d/4c/d/4e/4 | %38
 [B,Bd]2 z [Cc]- [Cc][B,B] [A,A]2 | %39
[Q:1/4=56] [B,DG] z/!mf![Q:1/4=64] [B^fb]/ [cgc'][Ada] [Bdb][cf][dg][fa] | %40
!f! [gb]/d'/[gg'] z/ e'/a'/e'/ [^fd'^f'][d'g'] z/ [ee']/[dd'] | %41
 [gbd'g'] z/ c'/ b/d'/g/b/ ^f/a/.d/ c/ [dg]>[dg] | %42
 [Ada] z [Bdgb]>[Bdgb] [cegc'][degd']/[ee']/ [Bdgb][Ac^fa]/[Gg]/ | %43
 [GBdg] z/ c'/ b/d'/g/b/ ^f/a/.d/ c/ [dg]>[dg] | [Ada] z [Bdgb] z z [Begb] [egae']>!f![egae'] | %45
 [Ad=fa] z/ g/ f/a/d/f/ ^c/e/.A/ G/ [Ad]>[Ad] | [EAe] z [FAdf] z z [D_Bdf] =B/4d/4B/4d/4!f! x/ x/ | %47
 [EAce] z/ d'/ c'/e'/a/c'/ ^g/b/.e/ d/ [ea]>[ea] | %48
 [Beb] z [ceac'] z z [Afac'] [Bb]!f![^f^f']/[Afab]/ | %49
 [^Ge^gb] z/ e/ ^f/^g/4a/4g/a/4b/4 a/b/4c'/4b/c'/4d'/4 c'/d'/4e'/4d'/e'/4=f'/4 | %50
 z/ e/[Aa] z [dd']- [dd'][cc'] a/[^F^f]/[^G^g] | %51
 [Acea] z/ [c^gc']/!mf! [dad'][Beb] [cec'][^GBd^g][Acea][Bdgb] | %52
!f! z/ e'/[aa'] z/ ^f'/b'/f'/ [^ge'^g'][e'a'] z/ [^ff']/[gg'] | %53
 [ac'e'a'] z/ d'/ c'/e'/a/c'/ ^g/b/.e/ d/ [ea]>[ea] | %54
 [Beb] z [ceac'] z z/ [cc']/[dd']/[ee']/ [ff'] z | %55
 z/ [Bb]/[cc']/[dd']/ [ee'] z z/ [ee']/[^f^f']/[^g^g']/ [aa'] z | %56
 z/ [Bb]/[Aa]/[^G^g]/ [Aa] z/ [Gg]/ [ca]f/B/ cB/A/ | [CEA] z z3/2 x/ x3/2 d/ c/e/A/a/ | %58
 ^g/b/e/- z/ !>!a>=g f/a/d/ =c/ B/d/G/ z/ | !tenuto![Gc] z !tenuto![Ac] z/ =G/ z/ Be/ e^d | %60
 e z/!mp! B,/!<(! ^C/^D/4E/4D/E/4^F/4 E/F/4G/4F/G/4A/4 G/A/4B/4A/B/4c/4!<)! | %61
!f! [G,GB]!>(! z z A- [^DA][E-G] ^F2!>)! | %62
 E!mp! z/!<(! [^DG]/ [EA][B,^F] [B,G][^DA^d][EBe][^F^d^f]!<)! | %63
!f! g/b/[ee'] z/ ^c'/^f'/c'/ [^db^d'][be'] z/ [^cc']/[dd'] | %64
 [egbe'] z/ a/ g/b/e/g/ ^d/^f/.B/ A/ [Be]>[Be] | %65
 [^FB^f] z [GBeg]>[GBeg] !tenuto!a!tenuto!g/f/ !tenuto!g!tenuto!f/e/ | %66
 [EGe] z/ [^F^d^f]/ [Geg]/[Bgb]/[^DFd]/[FAf]/ [EGBe] z/ [DFd]/ [EGe]/[GBg]/[Fdf]/[Afa]/ | %67
 [GBeg] z/ [^F^d^f]/ [^Ge^g]/[A=fa]/[Geg]/[B=db]/ [Aca] z/ [Bb]/ [cc']/[ee']/[Bg]/[db]/ | %68
 !tenuto![cea] z/ [B^g]/ [ca]/[ec']/[Bb]/[dd']/ !tenuto![cec'] z/"_cresc." [B^gb]/ [cac']/[ec'e']/[dbd']/[fd'f']/ | %69
 [ec'e']/[ge'g']/[fd'f']/[af'a']/ [ge'g']/[af'a']/[fd'f']/[ec'e']/!ff! !tenuto![dgd'] z/!f! [A^f]/ [Bg]/[db]/[Aa]/[cc']/ | %70
 [Bgb] z/ [Ada]/ [Bb][cc'] [dd'] z z2 | z [gae'g'] !>![gae'g']>[gae'g'] !>![fad'f'] z z2 | %72
 z [gae'g'] !>![gae'g']>[gae'g'] !>![egc'e'] z z [egc'e'] | %73
 [fac'f'][egbe'][dfad'][cegc'] [fbf'][egc'e'][dgd'][cfac'] | %74
[Q:1/4=40]"^ten." [fgbd'f']2[Q:1/4=64] z/ [dbd']/[ec'e']/[fd'f']/ [ge'g'][cec']/[dfd']/ [Bdb]/[dfd']/[cec']/[Bdfb]/ | %75
 [cegc'] z/ [Bdb]/ [cec']/[ege']/[dbd']/[fd'f']/ [egc'e'] z/ [dbd']/ [ec'e']/[ge'g']/[db]/[fd']/ | %76
 [egc'] z/!fff![Q:1/4=60]"^Poco più largo" [eg]/ [fa][db] [ec'] d'/e'/4f'/4e'/f'/4g'/4f'/g'/4a'/4 | %77
 z/ g/[cc'] x !>![ff'-] [Bfbf'][c'e'] [dd']2 | %78
 [cegc'] z/ [ebe']/ [fc'f'][dbd'] [c'e'][fb][gc'][bd'] | %79
!8va(! [egc'e']/g'/[c'c'']/ e'/ z/ a'/d''/a'/ [g'b'][g'c''] z/ [aa']/[bb'] | %80
 [c'e'g'c''] z/ [_b_b']/ a'/[c'c'']/f'/[aa']/ x2 [c'f']>[c'f']!8va)! | %81
 [c'g']3/2 [_B_b]/ _a/[cc']/f/[_Aa]/ e/[Gg]/.c/ _B/ _A/[Cc]/F/[_A,A]/ | %82
 E/[G,G]/.C/[K:bass][Q:1/4=52]"^rit." _B,/ _A,/C/F,/A,/[Q:1/4=38]"^Più largo" z[K:treble] !breath![f_ac'f'] [Bb]>[Bb] | %83
 !fermata![cegc']8 |] %84
V:2
 z/ .[Cc]/.E/G/4[B,B]/4 !tenuto!F/ z/ !breath!z z/ .[A,A]/.B,/D/4[G,G]/4 !tenuto!E/ z/ z | %1
[K:bass] C/4B,/4A,/4G,/4F,/4E,/4D,/4C,/4 B,,/4D,/4F,/4B,,/4 .C,/.C,,/ z2 x2 | %2
[I:staff -1] D/4C/4[I:staff +1]B,/4A,/4B,/4G,/4A,/4B,/4 x2 x2 x x/[K:treble] x/ | %3
 F/4E/4D/4C/4D/4C/4B,/4A,/4 B,/4G,/4A,/4B,/4C/4D/4E/4F/4 G/4F/4E/4D/4E/4D/4C/4B,/4 A/4G/4F/4E/4F/4E/4D/4C/4 | %4
 !>!_B/4A/4G/4F/4G/4F/4E/4D/4 !>!B/4A/4G/4F/4G/4F/4E/4D/4 !>!F/4E/4D/4C/4D/4C/4=B,/4A,/4 !>!F/4E/4D/4C/4D/4C/4B,/4A,/4 | %5
 !>!G/4F/4E/4D/4E/4D/4C/4B,/4[K:bass] !>!C/4B,/4A,/4G,/4A,/4G,/4F,/4E,/4 !>!F,/4E,/4D,/4C,/4B,,/4C,/4D,/4E,/4 !>!F,/4E,/4D,/4C,/4B,,/4A,/4G,/4F,/4 | %6
 !>!E,/4C/4B,/4A,/4G,/4F,/4E,/4D,/4 !>!E,/4F,/4G,/4F,/4E,/4D,/4C,/4B,,/4 !>!C,/4G,,/4A,,/4B,,/4C,/4D,/4E,/4F,/4 !>!G,/4F,/4E,/4D,/4E,/4F,/4G,/4A,/4 | %7
 !>!_B,/4G,/4A,/4B,/4C/4D/4E/4F/4 !>!G/4F/4E/4D/4E/4F/4G/4 z/4!fff!!ped! z/ G/ [EG]/ [CEG]/ [G,CEG]/ [E,G,CE]/ !fermata![C,E,G,E]!ped-up! | %8
 x8 | x4!fff!!ped! z F/ [CF]/ [A,CF]/ [F,A,CF]/ [C,F,A,C]!ped-up! | %10
 x4[I:staff -1] F/4E/4D/4C/4[I:staff +1]B,/4A,/4G,/4F,/4 E/4D/4C/4B,/4-B, | %11
!fff!!ped! [C,,,C,,]2!ped-up!!f![I:staff -1] C/4E/4C/4G,/4[I:staff +1]E,/4G,/4E,/4C,/4 x2!ff!!ped! C,,, z!ped-up! | %12
 z/!8vb(! .C,,,/.G,,,/.G,,,,/ !tenuto!C,,, z .C,,,/.E,,,/.D,,,/.F,,,/ .E,,,/.G,,,/.^F,,,/.A,,,/ | %13
 .G,,,/.B,,,/.A,,,/.C,,/ .B,,,/.D,,/!breath!G,,, z z/ [C,,,C,,]/ [B,,,,B,,,]/D,,,/[A,,,,A,,,]/C,,,/!8vb)! | %14
 [B,,,B,,]/D,,/!breath![G,,,G,,] z z/!8vb(! .C,,/ .B,,,/.D,,/.G,,,/.B,,,/ .A,,,/.C,,/.^F,,,/.A,,,/ | %15
 .G,,,/.A,,,/!breath!.B,,,,!8vb)! z z/ [A,,,A,,]/ [G,,,G,,]/B,,,/[^F,,,^F,,]/A,,,/ [G,,,G,,]/A,,,/!breath![B,,,,B,,,] | %16
 z z/ .G,,/ .=F,,/.G,,/.E,,/.G,,/ .F,,/.G,,/.B,,,/.G,,/ .F,,/.G,,/.E,,/.G,,/ | %17
 .F,,/.G,,/.B,,,/.F,,/ .E,,/.F,,/.D,,/.F,,/ .E,,/.G,,/!breath!.C,, z z/ .[F,,,F,,]/ | %18
 .[E,,,E,,]/.G,,,/.[D,,,D,,]/.F,,,/ .[E,,,E,,]/.G,,,/!breath!.[C,,,C,,] z z/!8vb(! ._B,,,/ .A,,,/.B,,,/.G,,,/.B,,,/ | %19
 .A,,,/.C,,/.F,,,/.A,,,/ .G,,,/.A,,,/.E,,,/.G,,,/ .F,,,/.A,,,/.D,,,/.F,,,/ .E,,,/.G,,,/.C,,,/.E,,,/ | %20
 .D,,,/.F,,,/.=B,,,,/.G,,,/ .F,,,/.G,,,/.D,,,/.F,,,/ .E,,,/.G,,,/.C,,,/.C,,/ .^F,,,/.A,,,/.D,,,/.C,,/ | %21
 .^F,,,/.A,,,/.D,,,/.C,,/ .A,,,/.C,,/.G,,,/.A,,,/ .G,,,/.B,,,/.D,,,/.D,,/ .G,,,/.B,,,/.D,,,/.D,,/ | %22
 .B,,,/.D,,/.G,,,/.B,,,/!8vb)! .D,,/z/.[G,,,G,,]/ .D,/!8vb(! .B,,,/.D,,/.G,,,/.B,,,/!8vb)! .D,,/z/[G,,,G,,]/ z/ | %23
 (3[F,,F,]/G,,/ x/ (3[E,,E,]/F,,/ x/ .[D,,D,]/.F,,/.E,,/.F,,/ (3[D,,D,]/E,,/ x/ (3[C,,C,]/D,,/ x/ B,,,/4C,,/4B,,,/4C,,/4B,,,/.D,,/ | %24
!8vb(! .C,,,/.E,,,/.D,,,/.F,,,/ .E,,,/.G,,,/!8vb)! [B,,,,B,,,]/D,,/ [C,,,C,,]/D,,/[D,,,D,,]/E,,/[E,,,E,,]/G,,/!8vb(! C,,,/E,,,/ | %25
 .D,,,/.F,,,/.E,,,/.G,,,/ .F,,,/.A,,,/!8vb)! [^C,,,^C,,]/E,,/[D,,,D,,]/E,,/[E,,,E,,]/F,,/[F,,,F,,]/A,,/!8vb(! D,,,/F,,,/ | %26
 .E,,,/.F,,,/4.G,,,/4.F,,,/.G,,,/4.A,,,/4 .B,,,,/.G,,,/.C,,,/.D,,,/ .G,,,,/.E,,,/ (6:4:6E,,,/4D,,,/4E,,,/4D,,,/4C,,,/4D,,,/4 C,,,3/2!8vb)! ._B,,,/ | %27
 .[E,,,E,,]/.G,,,/.[C,,,C,,]/._B,,,/ .[E,,,E,,]/.G,,,/.[C,,,C,,]/.B,,,/ .[A,,,A,,]/.C,,/.[F,,,F,,]/.G,,,/ .[E,,,E,,]/.G,,,/.[C,,,C,,]/ C,/ | %28
 (3_B,,,/C,/B,,,/(3A,,,/_B,,/A,,,/ (3G,,,/.A,,/G,,,/(3F,,,/G,,/F,,,/ (3E,,,/F,,/E,,,/(3D,,,/E,,/D,,,/ (3C,,,/D,,/C,,,/(3_B,,,,/C,,/B,,,,/ | %29
 (3A,,,,/_B,,,/A,,,,/(3G,,,/A,,,/G,,,/ F,,,/G,,,/4F,,,/4E,,,/F,,,/ G,,,3/2 [^F,,,^F,,]/ [G,,,G,,]/>[F,,,F,,]/[G,,,G,,]/>[F,,,F,,]/ | %30
 [G,,,G,,]/>[^F,,,^F,,]/[G,,,G,,]/>[F,,,F,,]/ G,,,/4=F,,/4E,,,/4F,,/4G,,,/4F,,/4E,,,/4F,,/4 [G,,,G,,]/>B,,,/C,,/>=F,,,/"^ten." !fermata!G,,,3/2 [G,,,D,,F,,G,,]/ | %31
!ped! [C,,E,,G,,C,]!^![C,,,C,,]/!ped-up! [E,G,]/ [F,A,][D,B,] [E,C][B,,B,][C,C][D,D] | %32
!ped! z z/!ped-up! E/ x/ A,/D z/ D/E/C/ G>[I:staff -1]F | %33
[I:staff +1] C/G,/C,/ G,/ A,/B,/4C/4B,/C/4D/4 x!p! [D,F,B,][E,G,C][F,B,D] | %34
!mp!!ped! [C,,C,][K:treble] z/!ped-up! E/ F !tenuto![FA]!tenuto![FGB]!tenuto![EGc] [DF]G | %35
[K:bass]!ped! C,/G,/C/!ped-up! x/ x2 B,/D/.G,/ F,/ [G,C]>[G,C] | %36
!ped! G,!ped-up! !breath!x/ x/!ped! C, x!ped-up! [A,,,A,,]/[D,,D,]/[G,,,G,,] [D,,D,][D,,,D,,] | %37
 [G,,,D,,G,,]3/2 [B,,D,]/ [C,E,][A,,^F,] [B,,G,][F,A,][G,B,][A,C] | %38
 z z/ [B,,B,]/ x/ E,/A, z/ A,/D/G,/ D>[I:staff -1]C | G,/[I:staff +1]D,/G,,/ D/ E^F GFGA | %40
 [G,,,G,,][K:treble] z/ B/ c !tenuto![CE] !tenuto![CD^F]!tenuto![B,DG]!tenuto![A,CEA]!tenuto![DAc] | %41
[K:bass] G,,/D,/G,/ x/ x2 x x/ C/!ped! [DG]>[DG]!ped-up! | %42
!ped! D!ped-up! x!ped! G, x!ped-up! [E,,C,E,][C,,C,][D,,D,][D,,,D,,] | %43
 [G,,,G,,] z/ x/ x2 x x/ C/!ped! [DG]>[DG]!ped-up! | %44
!ped! D!ped-up! x!ped! x2!ped-up! [E,,,E,,][E,,G,,B,,E,]!ped! A,,>!ped-up!A,, | %45
 [D,,=F,,D,][D,,,D,,] x2 x x/ G,/!ped! [A,D]>[A,D]!ped-up! | %46
!ped! A,!ped-up! x!ped! D, z!ped-up! [_B,,,_B,,][B,,D,F,_B,]!ped! E,>!ped-up!E, | %47
 [A,,=C,A,][A,,,A,,] x2 x x/[K:treble] D/!ped! [EA]>[EA]!ped-up! | %48
!ped! [^G,^G]/B,/!ped-up!.[E,E]/[K:bass] [D,,D,]/!ped! [C,,C,]/[E,,E,]/[A,,,A,,]/[C,,C,]/!ped-up! !>![F,,,F,,][F,,A,,C,F,]!ped! [^D,,^D,]/4^F,,/4[D,,D,]/4F,,/4[D,,D,]/4F,,/4!ped-up![D,,D,]/ | %49
 [E,,^G,,E,].[E,,,E,,]/[K:treble] [CE]/ [D^F][B,^G] [CA][^G,B,G][A,CA][B,DB] | %50
[K:bass] [A,,,C,,A,,] z/ [C,C]/ [D,D]>[B,,B,] x/ B,/C/[A,A]/ E>D | %51
!ff!!ped! [A,C]/E,/!ped-up!.[A,,,A,,]/!f! [E,E]/ ^F^G [EA] x x2 | %52
 [A,,,A,,] z/[K:treble] c/ d2- d[Ac][^Fd][Be] | %53
[K:bass] [A,,,A,,]/E,/[A,,A,]/ x/ x2 x x/[K:treble] D/!ped! [EA]>[EA]!ped-up! | %54
!ped! [^G,E^G]/B,/!ped-up!.[E,E]/[K:bass] [D,,D,]/!ped! [C,,A,,C,]/[E,,E,]/[A,,,A,,]/[C,,C,]/!ped-up! !^![D,,,D,,] z z [D,,B,,D,] | %55
 [E,,B,,E,]!f! z z !wedge![E,,D,E,] z/ E/^F/^G/ A z | %56
 [D,F,D] z z/ F/E/D/ [E,C][I:staff -1]!tenuto![FA]!tenuto![EA]!tenuto![D^G] | %57
[I:staff +1] [A,,,A,,] z/!mp! D/ C/E/A,/ z/ x2 ED | %58
 E[I:staff -1]e[I:staff +1] x2[K:treble] DF Gz/F/ | %59
 E/G/C/[K:bass] B,/ A,/C/^F,/E,/ !wedge!^D,!wedge!E, !wedge!A,,!wedge!B,, | %60
 [E,,,E,,] z/ [G,,B,,]/ [A,,^C,][^F,,^D,] [G,,E,][^D,^F,][E,G,][F,A,] | %61
 [E,,,E,,] z/ G,/ z/ ^C,/^F, F,/F,/G,/E,/ B,>[I:staff -1]A, | %62
 [E,G,B,]/[I:staff +1]B,,/E,,/ B,,/ ^C,/^D,/4E,/4D,/E,/4^F,/4 E,/F,/4G,/4F,/G,/4A,/4 G,/A,/4B,/4A,/B,/4=C/4 | %63
 [E,,,E,,] z/[K:treble] G/ A2 [A,B,^DF][G,B,EG][^F,A,^CA][B,^FAB] | %64
[K:bass] E,,/B,/[E,E]/ x/ x2 x2 [B,E]>[B,E] | %65
 [^D,B,^D]/^F,/.[B,,B,]/ [A,,A,]/ E, x !tenuto![C,,C,]!tenuto![A,,G,A,]!tenuto![B,,G,B,]!tenuto![B,,,B,,] | %66
 [E,,E,][E,,,E,,] z2 z/!ff! E,/ [E,,,E,,]/ z/ z!f! ^D/^F/ | %67
 z/!ff! E,/ [E,,,E,,]/ z/ z2 z/ A,/ [A,,,A,,]/[K:treble]!f! [^G,^G]/ [A,A]/C/[B,G]/[DB]/ | %68
 !tenuto![CEA]/[K:bass]!ff! A,/ [A,,,A,,]/[K:treble]!f! [B,^G]/ [CA]/[Ec]/[^G,G]/[B,B]/ [CEA]/[K:bass]!ff! A,/ [A,,,A,,]/!f! [^G,B,]/ [A,C][B,D] | %69
 [CE] [A,,F,A,][E,,G,,E,][F,,A,,F,] z/ G,/ [G,,,G,,]/ x/ x2 | %70
!ff! z/ G,/ [G,,,G,,]/[K:treble]!f! [^F,A,^F]/ [G,G]/B,/[A,A]/C/ [B,GB]/[K:bass]!ff! [G,,G,]/[G,,,G,,]/[G,,G,]/ [E,,E,]/[=F,,=F,]/[D,,D,]/[E,,E,]/ | %71
 [^C,,^C,]/[D,,D,]/[B,,,B,,]/[D,,D,]/ !>![C,,G,,A,,C,]/[D,,D,]/[B,,,B,,]/[C,,C,]/ !>![D,,F,,A,,D,]/ [F,,F,]/[E,,E,]/[F,,F,]/ [D,,D,]/[E,,E,]/[=C,,=C,]/[D,,D,]/ | %72
 [B,,,B,,]/[D,,D,]/[C,,C,]/[D,,D,]/ [B,,,F,,G,,B,,]/[C,,C,]/[A,,,A,,]/[B,,,F,,G,,B,,]/ [C,,E,,G,,C,]/ [E,,E,]/[D,,D,]/[E,,E,]/ [C,,C,]/[D,,D,]/[B,,,B,,]/[C,,C,]/ | %73
 [A,,,A,,]/[A,,A,]/[G,,G,]/[A,,A,]/ [F,,F,]/[G,,G,]/[E,,E,]/[F,,F,]/ [D,,D,]/[E,,E,]/[C,,C,]/[D,,D,]/ [B,,,B,,]/[C,,C,]/[A,,,A,,]/[B,,,B,,]/ | %74
 [G,,,B,,,D,,F,,G,,]2 z/!f! [B,D]/[CE]/[DF]/ [EG] x [G,,G,][G,,,G,,] | %75
 z/ C,/ z/!f! [D,B,]/ [E,C]/[G,E]/[B,D]/[DF]/ [CE] x x2 | %76
 z/ C,/ x/[K:treble] G,/ A,/B,/4C/4B,/C/4D/4 C/D/4E/4D/E/4F/4E/F/4G/4F/G/4A/4 | %77
[K:bass] z x z/ A/d[K:treble] z/ D/c x D/F/ | %78
 z/[K:bass] G,/ x/[K:treble] [B,G]/ [CA][DB] [Ec][FB][Gc][Bd] | %79
[K:bass] [C,,,C,,] z/[K:treble] [Ee]/ [Ff]2 [GBg][ce][Af][dfg] | %80
[K:bass] [C,,C,]/G,/[C,C]/ x/ x2[K:treble] [Ee]/G/.[Cc]/ _B,/ [CF]>[CF] | %81
 [CG][K:bass] x/ _B,/ [_A,_A]/C/[F,F]/A,/ [E,E]/G,/.[C,C]/ [_B,,_B,]/ [_A,,A,]/C,/[F,,F,]/A,,/ | %82
 [E,,E,]/G,,/.[C,,C,]/ [_B,,,_B,,]/ [_A,,,_A,,]/[C,,C,]/[F,,,F,,]/[A,,,A,,]/!ped! z !breath![_A,CF]!ped-up! B,>B, | %83
 !fermata![C,E,G,C]8 |] %84
V:3
 x8 |[K:bass] x8 | x15/2[K:treble] x/ | x8 | x8 | x2[K:bass] x6 | x8 | x4 [C,,,C,,]4 | x8 | %9
 x4 [C,,,C,,]4 | z2 x2 x4 | x8 | x/!8vb(! x15/2 | x8!8vb)! | x7/2!8vb(! x9/2 | x2!8vb)! x6 | x8 | %17
 x8 | x11/2!8vb(! x5/2 | x8 | x8 | x8 | x2!8vb)! x2!8vb(! x2!8vb)! x2 | x8 | %24
!8vb(! x3!8vb)! x4!8vb(! x | x3!8vb)! x4!8vb(! x | x15/2!8vb)! x/ | x8 | x8 | x8 | x8 | x8 | %32
 [C,,,G,,,C,,]3/2 E,/ F,>D, G,3 G, | x8 | x[K:treble] x7 | %35
[K:bass] [C,,C,] z/ x/ x2 x2 E,/G,/C,/E,/ | %36
 [B,,B,]/D,/.[G,,G,]/ [F,,F,]/ [E,,E,]/[G,,G,]/[C,,C,]/[E,,E,]/ z4 | x8 | %38
 [G,,,G,,] x C,>A,, D,3 D, | %39
 [G,,,G,,] x/ D,/ E,/^F,/4G,/4F,/G,/4A,/4 G,/A,/4B,/4A,/B,/4C/4 B,/C/4D/4C/D/4E/4 | %40
 x[K:treble] x7 |[K:bass] G,,,/ x/ x x2 x2 B,/D/G,/B,/ | %42
 [^F,^F]/A,/.[D,D]/ [C,C]/ [B,,B,]/[D,D]/[G,,G,]/[B,,B,]/ x4 | x4 x2 B,/D/G,/B,/ | %44
 [^F,^F]/A,/.[D,D]/ [C,,C,]/ [B,,,B,,]/[D,,D,]/[G,,,G,,]/[B,,,B,,]/ x2 [^C,,^C,]/4!mp!E,,/4[C,,C,]/4E,,/4[C,,C,]/4E,,/4[C,,C,]/ | %45
 x4 x2 F,/A,/D,/F,/ | %46
 [^C,^C]/E,/.[A,,A,]/ [G,,G,]/ [F,,F,]/[A,,A,]/[D,,D,]/[F,,F,]/ x2 [^G,,^G,]/4!mp!=B,,/4[G,,G,]/4B,,/4[G,,G,]/4B,,/4[G,,G,]/ | %47
 x2 x2 x2[K:treble] C/E/A,/C/ | E x[K:bass] x4 B,,>B,, | x3/2[K:treble] x13/2 | %50
[K:bass] x4 [E,E] z z [E,B,] | x2 ^F,/^G,/4A,/4G,/A,/4B,/4 A,/B,/4C/4B,/C/4D/4 C/D/4E/4D/E/4=F/4 | %52
 x2[K:treble] z [D-^FB] [DE^G][CE][B,D][EG] |[K:bass] x6[K:treble] C/E/A,/C/ | x3/2[K:bass] x13/2 | %55
 z4 !wedge![A,,C,A,] z z [A,,=G,A,] | x x z E, A,,!tenuto![D,,D,]!tenuto![E,,E,]!tenuto![E,,,E,,] | %57
 x4 E^G,A,F, | E, z/ D/ ^C/E/A,/ z/[K:treble] x4 | x3/2[K:bass] x13/2 | x8 | %61
 x3/2 G,,/ A,,>^F,, B,,2 z B,, | [E,,,E,,] x x2 x4 | x2[K:treble] z [A,^C^F-] x4 | %64
[K:bass] E,,, x x2 x3/2 A,/ G,/B,/E,/G,/ | x2 [G,,G,]/[B,,B,]/[E,,E,]/[G,,G,]/ x4 | x8 | %67
 x11/2[K:treble] x5/2 | x/[K:bass] x[K:treble] x3[K:bass] x7/2 | x8 | %70
 x3/2[K:treble] x3[K:bass] x7/2 | x8 | x8 | %73
 x [B,,E,][A,,D,][G,,C,] [F,,B,,][E,,G,,][D,,G,,][C,,F,,] | x4 z/!ff! [D,,D,]/[E,,E,]/[C,,C,]/ x2 | %75
 x [C,,,C,,]/ x/ x2 z/!ff! C,/ [C,,,C,,]/ x/ x2 | %76
 x [C,,,C,,]/[K:treble] [E,E]/ [F,F][D,D] [E,E][B,B][Cc][Dd] | %77
[K:bass] [C,,,C,,] z/ [E,E]/ [F,F]>[D,D][K:treble] x/ D/E/C/ G[G,G] | %78
 [CG]/[K:bass] x/ [C,,C,]/[K:treble] G,/ A,/B,/4C/4B,/C/4D/4 C/D/4E/4D/E/4F/4 E/F/4G/4F/G/4A/4 | %79
[K:bass] x2[K:treble] z [Ad] F[EG][DF]G |[K:bass] x6[K:treble] A,/C/F,/A,/ | %81
 E,/G,/[K:bass] .[C,,C,] x2 x4 | x6 [F,_A,][E,G,]/[D,F,]/ | x8 |] %84
V:4
 x8 | x8 | x8 | x8 | x8 | x8 | x8 | x8 |[K:bass] x8 |[K:treble] x8 | %10
 x2 E/4D/4C/4B,/4G/4F/4E/4D/4 x4 | x4[K:bass] x4 | x8 | x8 | x8 | x8 | x8 | x8 | x8 | x8 | x8 | %21
 x8 | x8 | x8 | x8 | x8 | x8 | x8 | x8 | x8 | x15/2[K:treble] x/ | z2 ED EDEF | %32
 z/ G/c[I:staff +1] F/[I:staff -1]A/d/A/ Bc c/A/B | %33
 E/G/C/ x/ x2[I:staff +1] C/D/4E/4[I:staff -1]D/E/4F/4 E/F/4G/4F/G/4A/4 | %34
 [EG]z/e/ fd d/d/e/c/ [df]d/f/ | x/ G/c/ F/ E/G/C/E/ x2 E/G/C/E/ | %36
 x4 [CG]/[A,^F]/[B,G]/C/ D/E/A,/C/ | x3/2 B,/ CA, B,^FGA | %38
 z/ D/G[I:staff +1] C/[I:staff -1]E/A/E/ ^FG G/E/F | x8 | [Bd] z/ b/ c'a z/ a/b/g/ [ac']a/c'/ | %41
 x/ D/G/ c/ B/d/G/B/ ^F/A/.D/ x/ B/d/G/B/ | x8 | x3/2 c/ B/d/G/B/ ^F/A/.D/ x/ B/d/G/B/ | x8 | %45
 x3/2 G/ F/A/D/F/ ^C/E/.A,/ x/ F/A/D/F/ | x4 x2 [Ee][Bb]/[EBde]/ | %47
 x3/2 d/ c/e/A/c/ ^G/B/.E/ x/ c/e/A/c/ | x4 x2 ^f/4!mp!a/4f/4a/4 x | x3/2 c/ dB c[B^g][ca][db] | %50
 [cc'e'] x z/ [^F^f]/[Bb]/f/ z/ B/c e>d | x8 | [ceac']z/c'/ d'b z/ b/c'/a/ [bd']b/d'/ | %53
 x3/2 d/ c/e/A/c/ ^G/B/.E/ x/ c/e/A/c/ | x6 z/ [Ec]/[DB]/[CA]/ | %55
 [B,^G] x z/ [DG]/[CA]/[B,B]/ [CAc] z z/ [=G^c]/[=Fd]/[Ee]/ | [Fdf] x z/ d/c/B/ A x x2 | %57
 x2 x3/2 A/ ^G/B/E/ z/ x2 | z2 e2 x4 | x4 ^FG c/A/F/A/ | G/B/E/ G,/ A,^F, G,^DE^F | %61
 z/ B,/E A,/ ^C/^F/C/ x2 E/C/^D | x8 | [GBe] z/ g/ a^f z/ f/g/e/ [fa]f/a/ | %64
 x x/ A/ G/B/E/G/ ^D/^F/.B,/ x/ G/B/E/G/ | x4 [Ae][Ece][EBe][^DA^d] | x8 | x8 | x8 | %69
 z2 z2 [B,GB] x/ [A,^F]/ [B,G]/[DB]/[^F,F]/[A,A]/ | [B,G] x/ x/ d/g/^f/a/ g x x2 | x8 | x8 | x8 | %74
 x8 | [CEG] x x2 x3/2 [B,D]/ [CE]/[EG]/[DB]/[Fd]/ | [EGc] x/ G/ A/B/4c/4B/c/4d/4 c/d/4e/4def | %77
 [ee'g'] z z/ a/d'/a/ z/ d/e [cc']/a/[Bb] | x4 ed/e/4f/4 e/f/4g/4f/g/4a/4 | %79
!8va(! x2 f'd' b/d'/e'/c'/ [d'f']d'/f'/ | %80
 x x/ _B/ [Aa]/c/[Ff]/A/ e'/[gg']/.c'/ _b/ a/c'/f/a/!8va)! | e/g/.c/ x/ x2 x4 | %82
 x4[K:bass] x2[K:treble] [f_a][ce]/[df]/ | x8 |] %84
V:5
 x8 | x8 | x8 | x8 | x8 | x8 | x8 | x8 |[K:bass] x8 |[K:treble] x8 | x8 | x4[K:bass] x4 | x8 | x8 | %14
 x8 | x8 | x8 | x8 | x8 | x8 | x8 | x8 | x8 | x8 | x8 | x8 | x8 | x8 | x8 | x8 | %30
 x15/2[K:treble] x/ | x8 | x8 | x8 | x8 | x8 | x6 G^F | x8 | x8 | x8 | x8 | x8 | x8 | x8 | x8 | %45
 x8 | x8 | x8 | x8 | x8 | x4 ^ga [Bb]2 | x8 | x8 | x8 | x6 x F | E x2 EE x x A |A x x2 x4 | x8 | %58
 x8 | x8 | x8 | x8 | x8 | x8 | x8 | x8 | x8 | x8 | x8 | x8 | x8 | x8 | x8 | x8 | x4 x g g2 | x8 | %76
 x8 | x4 x2 x b | x8 |!8va(! x8 | x8!8va)! | x8 | x4[K:bass] C,4[K:treble] | x8 |] %84
V:6
 x8 | x8 | x8 | x8 | x8 | x8 | x8 | x8 |[K:bass] x8 |[K:treble] x8 | x8 | x4[K:bass] x4 | x8 | x8 | %14
 x8 | x8 | x8 | x8 | x8 | x8 | x8 | x8 | x8 | x8 | x8 | x8 | x8 | x8 | x8 | x8 | %30
 x15/2[K:treble] x/ | x8 | x8 | x8 | x8 | x8 | x8 | x8 | x8 | x8 | x8 | x8 | x8 | x8 | x8 | x8 | %46
 x8 | x8 | x8 | x8 | x8 | x8 | x8 | x8 | x8 | x8 | x8 | x8 | x8 | x8 | x8 | x8 | x8 | x8 | x8 | %65
 x8 | x8 | x8 | x8 | x8 | x8 | x8 | x8 | x8 | x8 | x8 | x8 | x4 x2 x d/f/ | x8 |!8va(! x8 | %80
 x8!8va)! | x8 | x3/2[K:bass] x7/2[K:treble] x3 | x8 |] %84
V:7
 x8 |[K:bass] x8 | x15/2[K:treble] x/ | x8 | x8 | x2[K:bass] x6 | x8 | x8 | x8 | x8 | x8 | x8 | %12
 x/!8vb(! x15/2 | x8!8vb)! | x7/2!8vb(! x9/2 | x2!8vb)! x6 | x8 | x8 | x11/2!8vb(! x5/2 | x8 | x8 | %21
 x8 | x2!8vb)! x2!8vb(! x2!8vb)! x2 | x8 |!8vb(! x3!8vb)! x4!8vb(! x | x3!8vb)! x4!8vb(! x | %26
 x15/2!8vb)! x/ | x8 | x8 | x8 | x8 | x8 | x8 | x8 | x[K:treble] x7 |[K:bass] x8 | x8 | x8 | x8 | %39
 x8 | x[K:treble] x7 |[K:bass] x8 | x8 | x8 | x8 | x8 | x8 | x11/2[K:treble] x5/2 | %48
 x3/2[K:bass] x13/2 | x3/2[K:treble] x13/2 |[K:bass] x8 | x8 | x3/2[K:treble] x13/2 | %53
[K:bass] x11/2[K:treble] x5/2 | x3/2[K:bass] x13/2 | x8 | x8 | x8 | x4[K:treble] x4 | %59
 x3/2[K:bass] x13/2 | x8 | x8 | x8 | x3/2[K:treble] x13/2 |[K:bass] x8 | x8 | x8 | %67
 x11/2[K:treble] x5/2 | x/[K:bass] x[K:treble] x3[K:bass] x7/2 | x8 | %70
 x3/2[K:treble] x3[K:bass] x7/2 | x8 | x8 | x8 | x8 | x8 | x3/2[K:treble] x13/2 | %77
[K:bass] z4[K:treble] [G,G]2 x2 | E/[K:bass] x[K:treble] x2 x7/2 x |[K:bass] x3/2[K:treble] x13/2 | %80
[K:bass] x4[K:treble] x4 | x[K:bass] x7 | x4 [C,,,C,,]4 | [C,,,C,,]8 |] %84
V:8
 x8 |[K:bass] x8 | x15/2[K:treble] x/ | x8 | x8 | x2[K:bass] x6 | x8 | x8 | x8 | x8 | x8 | x8 | %12
 x/!8vb(! x15/2 | x8!8vb)! | x7/2!8vb(! x9/2 | x2!8vb)! x6 | x8 | x8 | x11/2!8vb(! x5/2 | x8 | x8 | %21
 x8 | x2!8vb)! x2!8vb(! x2!8vb)! x2 | x8 |!8vb(! x3!8vb)! x4!8vb(! x | x3!8vb)! x4!8vb(! x | %26
 x15/2!8vb)! x/ | x8 | x8 | x8 | x8 | x8 | x8 | x8 | x[K:treble] x7 |[K:bass] x8 | x8 | x8 | x8 | %39
 x8 | x[K:treble] x7 |[K:bass] x8 | x8 | x8 | x8 | x8 | x8 | x11/2[K:treble] x5/2 | %48
 x3/2[K:bass] x13/2 | x3/2[K:treble] x13/2 |[K:bass] x8 | x8 | x3/2[K:treble] x13/2 | %53
[K:bass] x11/2[K:treble] x5/2 | x3/2[K:bass] x13/2 | x8 | x8 | x8 | x4[K:treble] x4 | %59
 x3/2[K:bass] x13/2 | x8 | x8 | x8 | x3/2[K:treble] x13/2 |[K:bass] x8 | x8 | x8 | %67
 x11/2[K:treble] x5/2 | x/[K:bass] x[K:treble] x3[K:bass] x7/2 | x8 | %70
 x3/2[K:treble] x3[K:bass] x7/2 | x8 | x8 | x8 | x8 | x8 | x3/2[K:treble] x13/2 | %77
[K:bass] x4[K:treble] x4 | x/[K:bass] x[K:treble] x13/2 |[K:bass] x3/2[K:treble] x13/2 | %80
[K:bass] x4[K:treble] x4 | x[K:bass] x7 | z6 D,G,, | x8 |] %84

